src/main/resources/icons/SpringApiIcons/icons/gutter/factoryMethodBean.svg

<svg xmlns="http://www.w3.org/2000/svg" width="12" height="12" viewBox="0 0 12 12">
  <g fill="none" fill-rule="evenodd">
    <path fill="#62B543" fill-opacity=".7" d="M11.5602436,5.25639084 C10.7910788,4.59779962 9.79199495,4.2 8.7,4.2 C7.67109341,4.2 6.72467242,4.55316285 5.97534425,5.14488132 L4.50284086,3.65422019 C4.81699605,3.18000495 5,2.6113707 5,2.00024985 C5,1.26176834 4.73276981,0.585327575 4.2898069,0.0624326446 C6.12587064,-0.240922539 8.07497985,0.57686279 9.65258628,2.17467275 C10.5727232,3.10624644 11.2309927,4.16600492 11.5602436,5.25639084 Z M5.09988327,6.06970247 C4.59593086,6.78541042 4.3,7.65814603 4.3,8.6 C4.3,9.88353064 4.84958591,11.0386986 5.72627165,11.8430178 C4.46303017,11.5847949 3.21918097,10.8591709 2.14694343,9.77360609 C0.555971849,8.16285972 -0.252108485,6.16888606 0.0698255011,4.29568937 C0.591640087,4.73458231 1.26509702,4.99899958 2,4.99899958 C2.58463958,4.99952919 3.13039162,4.83234236 3.5918449,4.54292013 L5.09988327,6.06970247 Z"/>
    <path fill="#F98B9E" fill-opacity=".7" d="M4,2 C4,3.104 3.104,4 2,3.999 C0.896,3.999 0,3.104 0,2 C0,0.896 0.896,0 2,0 C3.104,0 4,0.896 4,2"/>
    <path fill="#9AA7B0" d="M11.2041,9.0078 L12.0001,9.5788 C11.8471,10.0528 11.5961,10.4828 11.2691,10.8438 L10.3771,10.4418 C10.1231,10.6648 9.8241,10.8398 9.4961,10.9498 L9.3991,11.9248 C9.1631,11.9758 8.9191,12.0008 8.6681,12.0008 C8.4181,12.0008 8.1731,11.9758 7.9371,11.9248 L7.8411,10.9498 C7.5131,10.8398 7.2141,10.6648 6.9601,10.4418 L6.0671,10.8438 C5.7411,10.4828 5.4901,10.0528 5.3371,9.5788 L6.1331,9.0078 C6.1001,8.8438 6.0831,8.6738 6.0831,8.5008 C6.0831,8.3268 6.1001,8.1578 6.1331,7.9938 L5.3371,7.4228 C5.4901,6.9488 5.7411,6.5198 6.0671,6.1578 L6.9601,6.5608 C7.2141,6.3368 7.5131,6.1618 7.8411,6.0508 L7.9371,5.0758 C8.1731,5.0268 8.4181,4.9998 8.6681,4.9998 C8.9191,4.9998 9.1631,5.0268 9.3991,5.0758 L9.4961,6.0508 C9.8241,6.1618 10.1231,6.3368 10.3771,6.5608 L11.2691,6.1578 C11.5961,6.5198 11.8471,6.9488 12.0001,7.4228 L11.2041,7.9938 C11.2361,8.1578 11.2541,8.3268 11.2541,8.5008 C11.2541,8.6738 11.2361,8.8438 11.2041,9.0078 M8.6681,9.7388 C9.3521,9.7388 9.9071,9.1848 9.9071,8.5008 C9.9071,7.8168 9.3521,7.2618 8.6681,7.2618 C7.9841,7.2618 7.4301,7.8168 7.4301,8.5008 C7.4301,9.1848 7.9841,9.7388 8.6681,9.7388"/>
  </g>
</svg>

<svg xmlns="http://www.w3.org/2000/svg" width="12" height="12" viewBox="0 0 12 12"><rect id="frame" width="12" height="12" fill="none"/><g fill="none" fill-rule="evenodd"><path fill="#62B543" fill-opacity=".7" d="M11.56 5.256A4.383 4.383 0 0 0 8.7 4.2a4.381 4.381 0 0 0-2.725.945l-1.472-1.49A2.985 2.985 0 0 0 5 2C5 1.262 4.733.585 4.29.062 6.126-.24 8.075.577 9.653 2.175c.92.931 1.578 1.991 1.907 3.081zM5.1 6.07a4.38 4.38 0 0 0-.8 2.53c0 1.284.55 2.439 1.426 3.243-1.263-.258-2.507-.984-3.58-2.07C.557 8.164-.251 6.17.07 4.297A2.989 2.989 0 0 0 2 4.999c.585 0 1.13-.167 1.592-.456L5.1 6.07z"/><path fill="#F98B9E" fill-opacity=".7" d="M4 2A2 2 0 1 1 .002 2 2 2 0 0 1 4 2"/><path fill="#9AA7B0" d="M11.204 9.008l.796.57a3.473 3.473 0 0 1-.73 1.266l-.893-.402a2.582 2.582 0 0 1-.88.508l-.098.975c-.236.05-.48.076-.73.076a3.46 3.46 0 0 1-.732-.076l-.096-.975a2.582 2.582 0 0 1-.88-.508l-.894.402a3.485 3.485 0 0 1-.73-1.265l.796-.571a2.572 2.572 0 0 1 0-1.014l-.796-.571c.153-.474.404-.903.73-1.265l.893.403c.254-.224.553-.4.881-.51l.096-.975a3.597 3.597 0 0 1 1.462 0l.097.975c.328.11.627.286.881.51l.892-.403c.327.362.578.79.731 1.265l-.796.57a2.641 2.641 0 0 1 0 1.015m-2.536.73a1.239 1.239 0 1 0 .001-2.476 1.239 1.239 0 0 0 0 2.477"/></g></svg>
